docs/.gitbook/assets/icon-bar-chart-16@light.svg

<svg width="32" height="32" viewBox="0 0 16 16" fill="none" xmlns="http://www.w3.org/2000/svg">
<rect x="0" y="0" width="16" height="16" fill="#fff"/>
<path fill-rule="evenodd" clip-rule="evenodd" d="M1 3.75C1 2.23122 2.23122 1 3.75 1H12.25C13.7688 1 15 2.23122 15 3.75V12.25C15 13.7688 13.7688 15 12.25 15H3.75C2.23122 15 1 13.7688 1 12.25V3.75ZM3.75 2.5C3.05964 2.5 2.5 3.05964 2.5 3.75V12.25C2.5 12.9404 3.05964 13.5 3.75 13.5H12.25C12.9404 13.5 13.5 12.9404 13.5 12.25V3.75C13.5 3.05964 12.9404 2.5 12.25 2.5H3.75ZM4.75 5C5.16421 5 5.5 5.33579 5.5 5.75V11.25C5.5 11.6642 5.16421 12 4.75 12C4.33579 12 4 11.6642 4 11.25V5.75C4 5.33579 4.33579 5 4.75 5ZM11.25 6C11.6642 6 12 6.33579 12 6.75V11.25C12 11.6642 11.6642 12 11.25 12C10.8358 12 10.5 11.6642 10.5 11.25V6.75C10.5 6.33579 10.8358 6 11.25 6ZM8 7C8.41421 7 8.75 7.33579 8.75 7.75V11.25C8.75 11.6642 8.41421 12 8 12C7.58579 12 7.25 11.6642 7.25 11.25V7.75C7.25 7.33579 7.58579 7 8 7Z" fill="#000"/>
</svg>

<svg xmlns="http://www.w3.org/2000/svg" width="32" height="32" fill="none" viewBox="0 0 16 16"><path fill="#fff" d="M0 0h16v16H0z"/><path fill="#000" fill-rule="evenodd" d="M1 3.75A2.75 2.75 0 0 1 3.75 1h8.5A2.75 2.75 0 0 1 15 3.75v8.5A2.75 2.75 0 0 1 12.25 15h-8.5A2.75 2.75 0 0 1 1 12.25zM3.75 2.5c-.69 0-1.25.56-1.25 1.25v8.5c0 .69.56 1.25 1.25 1.25h8.5c.69 0 1.25-.56 1.25-1.25v-8.5c0-.69-.56-1.25-1.25-1.25zm1 2.5a.75.75 0 0 1 .75.75v5.5a.75.75 0 0 1-1.5 0v-5.5A.75.75 0 0 1 4.75 5m6.5 1a.75.75 0 0 1 .75.75v4.5a.75.75 0 0 1-1.5 0v-4.5a.75.75 0 0 1 .75-.75M8 7a.75.75 0 0 1 .75.75v3.5a.75.75 0 0 1-1.5 0v-3.5A.75.75 0 0 1 8 7" clip-rule="evenodd"/></svg>
